pp/music-note-single.svg

<svg viewBox="0 0 20 20" fill="none" xmlns="http://www.w3.org/2000/svg" height="1em" width="1em">
  <path d="M9.78103 1.69759C14.1038 4.63512 16.25 6.76176 16.25 8.30413C16.25 9.79646 15.4291 11.0034 13.8541 11.8872C13.418 12.132 12.9324 11.6555 13.1688 11.2148C13.5756 10.4565 13.4416 9.60793 12.7079 8.59803C11.934 7.53285 10.8174 6.75731 9.34301 6.26969C9.13826 6.20198 9 6.01063 9 5.79498V2.11114C9 1.70978 9.44906 1.47201 9.78103 1.69759Z" fill="currentColor"/>
  <path d="M7.75 17.75C5.97914 17.75 4.5 16.607 4.5 15.125C4.5 13.643 5.97914 12.5 7.75 12.5C9.52086 12.5 11 13.643 11 15.125C11 16.607 9.52086 17.75 7.75 17.75Z" fill="currentColor"/>
  <path d="M10 4C10.5523 4 11 4.44772 11 5V15C11 15.5523 10.5523 16 10 16C9.44772 16 9 15.5523 9 15V5C9 4.44772 9.44772 4 10 4Z" fill="currentColor"/>
</svg>

<svg viewBox="0 0 20 20" fill="none" xmlns="http://www.w3.org/2000/svg" height="1em" width="1em">
  <path d="M9.781 1.698c4.323 2.937 6.469 5.064 6.469 6.606 0 1.492-.82 2.7-2.396 3.583-.436.245-.922-.232-.685-.672.407-.758.273-1.607-.461-2.617-.774-1.065-1.89-1.84-3.365-2.328A.5.5 0 0 1 9 5.795V2.111a.5.5 0 0 1 .781-.413ZM7.75 17.75c-1.77 0-3.25-1.143-3.25-2.625S5.98 12.5 7.75 12.5 11 13.643 11 15.125 9.52 17.75 7.75 17.75Z" fill="currentColor"/>
  <path d="M10 4a1 1 0 0 1 1 1v10a1 1 0 1 1-2 0V5a1 1 0 0 1 1-1Z" fill="currentColor"/>
</svg>
